X:1
T:Title
%%score { 1 | 2 }
L:1/8
M:4/4
K:Bb
V:1 treble nm="Grand Piano"
V:2 bass 
V:1
 z4 z2[Q:1/4=100] [B,D]>[CE] | [DF]2 [DF]>[EG] [DF]2 [DB]>[Ec] | [Fd]3 [Ec] [DB]2 [FB]>[FA] | %3
 [EG]2 [EG]>[FA] [GB]2 [FA]>[EG] | [DF]6 [DF]>D | E2 G>A G2 A>G |[M:3/4] [DF]3 [DB] [Fd]2 | %7
[M:1/4] [Fd]>[Fd] |[M:4/4] [Fc]2 [FA]>[Fc] [=Ec]2 [EG]>[EA] |[M:3/4] F6 |[M:1/4] d>c | %11
[M:4/4] [Ec]2 [DB]>[DA] [DB]2 [Dc]>[DB] | B2 A>_A =A2 c>d | e2 A>[FA] [FB]2 c>c | d6 d>e | %15
 f2 [Fd]>[Ec] [DB]2 [EA]>[FB] |[M:9/8] [Gc]2 [Gc]- [Gc]/[Gd]/ [Ge]2- [Ge][Gd]>[Gc] | %17
[M:4/4] B2 A>B d2 c>c |[M:3/4] [DB]6 |] %19
V:2
 z4 z2 [B,,F,]>[B,,F,] | [B,,B,]2 [B,,B,]>[B,,B,] [B,,B,]2 [B,,B,]>[B,,B,] | %2
 [B,,B,]3 [B,,B,] [B,,B,]2 [D,B,]>[D,B,] | [E,B,]2 [E,B,]>[E,B,] [E,B,]2 [E,B,]>[E,B,] | %4
 [B,,B,]6 [B,,B,]>[B,,F,B,] | [F,A,C]2 [F,A,E]>[F,A,E] [F,A,E]2 [F,CE]>[F,A,E] | %6
[M:3/4] [B,,B,]3 [B,,B,] [B,,B,]2 |[M:1/4] [B,,B,]>[B,,B,] | %8
[M:4/4] [C,A,]2 [C,C]>[C,A,] [C,G,]2 [C,B,]>[C,C] |[M:3/4] [F,A,]6 |[M:1/4] [F,A,F]>[F,E] | %11
[M:4/4] [B,,F,]2 [B,,F,]>[B,,F,] [B,,F,]2 [B,,F,]>[B,,B,] | %12
 [F,CE]2 [F,CE]>[F,=B,E] [F,CE]2 [F,A,F]>[F,_B,F] | %13
 [F,CF]2 [F,CF]>[E,C] [D,B,]2[K:treble] [F,A,F]>[F,A,F] | [B,F]6 [B,F]>[B,F] | %15
 [B,DF]2[K:bass] [B,,B,]>[B,,F,] [B,,F,]2 [C,F,]>[D,B,] | %16
[M:9/8] [E,B,]2 [E,B,]- [E,B,]/[D,=B,]/ [C,C]2- [C,C][D,B,]>[E,C] | %17
[M:4/4] [F,DF]2 [F,CE]>[G,B,D] [F,B,F]2 [F,A,E]>[F,E] |[M:3/4] [B,,F,]6 |] %19

